img/final-delivered.svg

<svg width="150" height="150" viewBox="0 0 150 150" fill="none" xmlns="http://www.w3.org/2000/svg">
<circle cx="75" cy="75" r="73" stroke="#0082F4" stroke-width="4"/>
<g clip-path="url(#clip0_1_95)">
<path d="M107.179 66.0628H73.4562V45.2586C73.4562 43.7325 72.2146 42.4908 70.6885 42.4908H61.8377C60.4935 41.2489 58.6984 40.4884 56.7282 40.4884C54.7579 40.4884 52.9629 41.2489 51.6186 42.4908H42.7678C41.2416 42.4908 40 43.7325 40 45.2586V83.2117C40 84.7378 41.2416 85.9795 42.7678 85.9795H59.937V106.691C59.937 108.246 61.2026 109.512 62.7582 109.512H107.179C108.735 109.512 110 108.246 110 106.691V68.8835C110 67.3281 108.735 66.0628 107.179 66.0628ZM78.8069 69.4307H91.1306V90.912L85.5509 88.8565C85.1753 88.7182 84.7623 88.7182 84.3867 88.8565L78.807 90.912V69.4307H78.8069ZM56.7282 43.8562C58.9507 43.8562 60.7723 45.6043 60.8913 47.7977H52.565C52.6839 45.6042 54.5056 43.8562 56.7282 43.8562ZM43.3679 45.8587H49.5096C49.3239 46.4756 49.2166 47.1257 49.1964 47.7976H45.9175C44.9876 47.7976 44.2336 48.5515 44.2336 49.4815C44.2336 50.4115 44.9876 51.1654 45.9175 51.1654H67.5388C68.4688 51.1654 69.2227 50.4115 69.2227 49.4815C69.2227 48.5515 68.4688 47.7976 67.5388 47.7976H64.2598C64.2396 47.1257 64.1321 46.4756 63.9466 45.8587H70.0883V82.6116H43.3679V45.8587ZM106.632 106.144H63.3049V85.9795H70.6884C72.2145 85.9795 73.456 84.7379 73.456 83.2117V69.4305H75.4388V93.3269C75.4388 93.8775 75.708 94.3932 76.1596 94.7082C76.446 94.9079 76.7829 95.0108 77.1229 95.0108C77.3189 95.0108 77.5159 94.9767 77.7048 94.907L84.9685 92.2313L92.2322 94.907C92.7488 95.0974 93.3259 95.0231 93.7774 94.7082C94.229 94.3932 94.4982 93.8775 94.4982 93.3269V69.4307H106.632V106.144H106.632Z" fill="#0082F4"/>
<path d="M62.3615 62.1051L54.1579 70.3086L51.0946 67.2453C50.437 66.5877 49.3708 66.5877 48.713 67.2453C48.0554 67.9029 48.0554 68.9692 48.713 69.6269L52.9671 73.8809C53.283 74.1968 53.7113 74.3741 54.1579 74.3741C54.6045 74.3741 55.0328 74.1968 55.3487 73.8809L64.743 64.4866C65.4006 63.829 65.4006 62.7627 64.743 62.1051C64.0854 61.4474 63.0192 61.4474 62.3615 62.1051Z" fill="#0082F4"/>
</g>
<defs>
<clipPath id="clip0_1_95">
<rect width="70" height="70" fill="white" transform="translate(40 40)"/>
</clipPath>
</defs>
</svg>

<svg xmlns="http://www.w3.org/2000/svg" fill="none" viewBox="0 0 150 150"><circle cx="75" cy="75" r="73" stroke="#0082F4" stroke-width="4"/><g fill="#0082F4" clip-path="url(#a)"><path d="M107.179 66.063H73.456V45.259a2.77 2.77 0 0 0-2.767-2.768h-8.851a7.507 7.507 0 0 0-5.11-2.003c-1.97 0-3.765.76-5.11 2.003h-8.85A2.771 2.771 0 0 0 40 45.259v37.953a2.771 2.771 0 0 0 2.768 2.767h17.169v20.712a2.825 2.825 0 0 0 2.821 2.821h44.421a2.824 2.824 0 0 0 2.821-2.821V68.883a2.824 2.824 0 0 0-2.821-2.82ZM78.807 69.43H91.13v21.481l-5.58-2.056a1.685 1.685 0 0 0-1.164 0l-5.58 2.056V69.431ZM56.728 43.856a4.175 4.175 0 0 1 4.163 3.942h-8.326a4.175 4.175 0 0 1 4.163-3.942Zm-13.36 2.003h6.142a7.5 7.5 0 0 0-.314 1.939h-3.279a1.684 1.684 0 0 0 0 3.367H67.54a1.684 1.684 0 1 0 0-3.367h-3.28a7.509 7.509 0 0 0-.312-1.94h6.141v36.754h-26.72V45.859Zm63.264 60.285H63.305V85.979h7.383a2.77 2.77 0 0 0 2.768-2.767V69.43h1.983v23.897a1.684 1.684 0 0 0 2.266 1.58l7.264-2.676 7.263 2.676a1.684 1.684 0 0 0 2.266-1.58V69.43h12.134v36.713Z"/><path d="m62.361 62.105-8.203 8.204-3.063-3.064a1.684 1.684 0 0 0-2.382 2.382l4.254 4.254a1.684 1.684 0 0 0 2.382 0l9.394-9.394a1.684 1.684 0 0 0-2.381-2.382Z"/></g><defs><clipPath id="a"><path fill="#fff" d="M40 40h70v70H40z"/></clipPath></defs></svg>
